X:1
T:The Wall Nut
M:6/8
R:jig
K:G
dBG ABF|GDB, G,B,D|CEG DFA|GAB~A3|
dBG ABF|GDB, G,B,D|CEG DFA|BGF G3:|
gdB gdB|gaf g2^g|ae^c aec|afe dcA|
GDG ~B2B|AEA ~e2e|fgf edc|BGF G3:|
